JourneyToTheHarvest/Assets/LUTS/GFX100S_FLog_FGamut_to_WDR_BT.709_33grid_V.1.01.cube
#title:FLog_FGamut_to_WDR_BT.709
#FUJIFILM Corporation
#Gamma:F-Log to Wide Dynamic Range curve
#Gamut:F-Gamut to ITU-R BT.709
#Version:1.01
LUT_3D_SIZE 33
0.000000 0.000000 0.000000
0.000000 0.000000 0.000000
0.000000 0.000000 0.000000
0.000000 0.000000 0.000000
0.029889 0.000000 0.000000
0.066503 0.000000 0.000000
0.107727 0.000000 0.000000
0.149865 0.000000 0.000000
0.192718 0.000000 0.000000
0.235039 0.000000 0.000000
0.279599 0.000000 0.000000
0.328297 0.000000 0.000000
0.379037 0.000000 0.000000
0.434576 0.000000 0.000000
0.494045 0.000000 0.000000
0.558345 0.000000 0.000000
0.621278 0.000000 0.000000
0.680745 0.000000 0.000000
0.737079 0.000000 0.000000
0.790926 0.000000 0.000000
0.842151 0.000000 0.000000
0.890736 0.000000 0.000000
0.937097 0.000000 0.000000
0.981387 0.000000 0.000000
1.000000 0.000000 0.000000
1.000000 0.000000 0.000000
1.000000 0.000000 0.000000
1.000000 0.000000 0.000000
1.000000 0.000000 0.000000
1.000000 0.000000 0.000000
1.000000 0.000000 0.000000
1.000000 0.000000 0.000000
1.000000 0.000000 0.000000
0.000000 0.000000 0.000000
0.000000 0.000000 0.000000
0.000000 0.000000 0.000000
0.000000 0.000000 0.000000
0.029889 0.000000 0.000000
0.066503 0.000000 0.000000
0.107727 0.000000 0.000000
0.149865 0.000000 0.000000
0.192718 0.000000 0.000000
0.235039 0.000000 0.000000
0.279599 0.000000 0.000000
0.328297 0.000000 0.000000
0.379037 0.000000 0.000000
0.434576 0.000000 0.000000
0.494045 0.000000 0.000000
0.558345 0.000000 0.000000
0.621278 0.000000 0.000000
0.680745 0.000000 0.000000
0.737079 0.000000 0.000000
0.790926 0.000000 0.000000
0.842151 0.000000 0.000000
0.890736 0.000000 0.000000
0.937097 0.000000 0.000000
0.981387 0.000000 0.000000
1.000000 0.000000 0.000000
1.000000 0.000000 0.000000
1.000000 0.000000 0.000000
1.000000 0.000000 0.000000
1.000000 0.000000 0.000000
1.000000 0.000000 0.000000
1.000000 0.000000 0.000000
1.000000 0.000000 0.000000
1.000000 0.000000 0.000000
0.000000 0.000000 0.000000
0.000000 0.000000 0.000000
0.000000 0.000000 0.000000
0.000000 0.000000 0.000000
0.029889 0.000000 0.000000
0.066503 0.000000 0.000000
0.107727 0.000000 0.000000
0.149865 0.000000 0.000000
0.192718 0.000000 0.000000
0.235039 0.000000 0.000000
0.279599 0.000000 0.000000
0.328297 0.000000 0.000000
0.379037 0.000000 0.000000
0.434576 0.000000 0.000000
0.494045 0.000000 0.000000
0.558345 0.000000 0.000000
0.621278 0.000000 0.000000
0.680745 0.000000 0.000000
0.737079 0.000000 0.000000
0.790926 0.000000 0.000000
0.842151 0.000000 0.000000
0.890736 0.000000 0.000000
0.937097 0.000000 0.000000
0.981387 0.000000 0.000000
1.000000 0.000000 0.000000
1.000000 0.000000 0.000000
1.000000 0.000000 0.000000
1.000000 0.000000 0.000000
1.000000 0.000000 0.000000
1.000000 0.000000 0.000000
1.000000 0.000000 0.000000
1.000000 0.000000 0.000000
1.000000 0.000000 0.000000
0.000000 0.000000 0.000000
0.000000 0.000000 0.000000
0.000000 0.000000 0.000000
0.000000 0.000000 0.000000
0.029889 0.000000 0.000000
0.066503 0.000000 0.000000
0.107727 0.000000 0.000000
0.149865 0.000000 0.000000
0.192718 0.000000 0.000000
0.235039 0.000000 0.000000
0.279599 0.000000 0.000000
0.328297 0.000000 0.000000
0.379037 0.000000 0.000000
0.434576 0.000000 0.000000
0.494045 0.000000 0.000000
0.558345 0.000000 0.000000
0.621278 0.000000 0.000000
0.680745 0.000000 0.000000
0.737079 0.000000 0.000000
0.790926 0.000000 0.000000
0.842151 0.000000 0.000000
0.890736 0.000000 0.000000
0.937097 0.000000 0.000000
0.981387 0.000000 0.000000
1.000000 0.000000 0.000000
1.000000 0.000000 0.000000
1.000000 0.000000 0.000000
1.000000 0.000000 0.000000
1.000000 0.000000 0.000000
1.000000 0.000000 0.000000
1.000000 0.000000 0.000000
1.000000 0.000000 0.000000
1.000000 0.000000 0.000000
0.000000 0.020392 0.000000
0.000000 0.020392 0.000000
0.000000 0.020392 0.000000
0.000000 0.020392 0.000000
0.019311 0.018150 0.000000
0.055925 0.015404 0.000000
0.098519 0.012153 0.000000
0.142594 0.007950 0.000000
0.186763 0.002681 0.000000
0.230009 0.000000 0.000000
0.275293 0.000000 0.000000
0.324589 0.000000 0.000000
0.375808 0.000000 0.000000
0.431755 0.000000 0.000000
0.491568 0.000000 0.000000
0.556162 0.000000 0.000000
0.619326 0.000000 0.000000
0.678974 0.000000 0.000000
0.735453 0.000000 0.000000
0.789420 0.000000 0.000000
0.840745 0.000000 0.000000
0.889414 0.000000 0.000000
0.935847 0.000000 0.000000
0.980199 0.000000 0.000000
1.000000 0.000000 0.000000
1.000000 0.000000 0.000000
1.000000 0.000000 0.000000
1.000000 0.000000 0.000000
1.000000 0.000000 0.000000
1.000000 0.000000 0.000000
1.000000 0.000000 0.000000
1.000000 0.000000 0.000000
1.000000 0.000000 0.000000
0.000000 0.045373 0.000000
0.000000 0.045373 0.000000
0.000000 0.045373 0.000000
0.000000 0.045373 0.000000
0.006354 0.043131 0.000000
0.042968 0.040384 0.000000
0.086469 0.037134 0.000000
0.133306 0.032930 0.000000
0.179255 0.027662 0.000000
0.223717 0.021440 0.000000
0.269934 0.013762 0.000000
0.319992 0.004009 0.000000
0.371816 0.000000 0.000000
0.428275 0.000000 0.000000
0.488516 0.000000 0.000000
0.553475 0.000000 0.000000
0.616927 0.000000 0.000000
0.676798 0.000000 0.000000
0.733457 0.000000 0.000000
0.787571 0.000000 0.000000
0.839018 0.000000 0.000000
0.887791 0.000000 0.000000
0.934313 0.000000 0.000000
0.978742 0.000000 0.000000
1.000000 0.000000 0.000000
1.000000 0.000000 0.000000
1.000000 0.000000 0.000000
1.000000 0.000000 0.000000
1.000000 0.000000 0.000000
1.000000 0.000000 0.000000
1.000000 0.000000 0.000000
1.000000 0.000000 0.000000
1.000000 0.000000 0.000000
0.000000 0.074941 0.000000
0.000000 0.074941 0.000000
0.000000 0.074941 0.000000
0.000000 0.074941 0.000000
0.000000 0.072699 0.000000
0.027630 0.069953 0.000000
0.070969 0.066702 0.000000
0.121689 0.062499 0.000000
0.170035 0.057230 0.000000
0.216069 0.051009 0.000000
0.263466 0.043330 0.000000
0.314470 0.033578 0.000000
0.367036 0.021864 0.000000
0.424119 0.007180 0.000000
0.484878 0.000000 0.000000
0.550278 0.000000 0.000000
0.614074 0.000000 0.000000
0.674213 0.000000 0.000000
0.731086 0.000000 0.000000
0.785376 0.000000 0.000000
0.836970 0.000000 0.000000
0.885866 0.000000 0.000000
0.932493 0.000000 0.000000
0.977014 0.000000 0.000000
1.000000 0.000000 0.000000
1.000000 0.000000 0.000000
1.000000 0.000000 0.000000
1.000000 0.000000 0.000000
1.000000 0.000000 0.000000
1.000000 0.000000 0.000000
1.000000 0.000000 0.000000
1.000000 0.000000 0.000000
1.000000 0.000000 0.000000
0.000000 0.110528 0.000000
0.000000 0.110528 0.000000
0.000000 0.110528 0.000000
0.000000 0.110528 0.000000
0.000000 0.108650 0.000000
0.007797 0.106321 0.000000
0.051136 0.103522 0.000000
0.105456 0.099830 0.000000
0.157507 0.095081 0.000000
0.205831 0.089284 0.000000
0.254886 0.081813 0.000000
0.307192 0.071813 0.000000
0.360765 0.060100 0.000000
0.418684 0.045415 0.000000
0.480133 0.027480 0.000000
0.546114 0.005453 0.000000
0.610364 0.000000 0.000000
0.670854 0.000000 0.000000
0.728007 0.000000 0.000000
0.782528 0.000000 0.000000
0.834313 0.000000 0.000000
0.883370 0.000000 0.000000
0.930135 0.000000 0.000000
0.974774 0.000000 0.000000
1.000000 0.000000 0.000000
1.000000 0.000000 0.000000
1.000000 0.000000 0.000000
1.000000 0.000000 0.000000
1.000000 0.000000 0.000000
1.000000 0.000000 0.000000
1.000000 0.000000 0.000000
1.000000 0.000000 0.000000
1.000000 0.000000 0.000000
0.000000 0.146608 0.000000
0.000000 0.146608 0.000000
0.000000 0.146608 0.000000
0.000000 0.146608 0.000000
0.000000 0.145064 0.000000
0.000000 0.143156 0.000000
0.026279 0.140874 0.000000
0.082564 0.137883 0.000000
0.140662 0.134068 0.000000
0.192373 0.129461 0.000000
0.243759 0.123615 0.000000
0.297840 0.115908 0.000000
0.352755 0.106178 0.000000
0.411772 0.093121 0.000000
0.474118 0.075401 0.000000
0.540849 0.053375 0.000000
0.605680 0.029106 0.000000
0.666619 0.003660 0.000000
0.724129 0.000000 0.000000
0.778942 0.000000 0.000000
0.830970 0.000000 0.000000
0.880230 0.000000 0.000000
0.927169 0.000000 0.000000
0.971959 0.000000 0.000000
1.000000 0.000000 0.000000
1.000000 0.000000 0.000000
1.000000 0.000000 0.000000
1.000000 0.000000 0.000000
1.000000 0.000000 0.000000
1.000000 0.000000 0.000000
1.000000 0.000000 0.000000
1.000000 0.000000 0.000000
1.000000 0.000000 0.000000
0.000000 0.182240 0.000000
0.000000 0.182240 0.000000
0.000000 0.182240 0.000000
0.000000 0.182240 0.000000
0.000000 0.180932 0.000000
0.000000 0.179321 0.000000
0.000000 0.177399 0.000000
0.052968 0.174889 0.000000
0.118689 0.171702 0.000000
0.175431 0.167879 0.000000
0.230024 0.163067 0.000000
0.286437 0.156795 0.000000
0.343066 0.149003 0.000000
0.403460 0.138791 0.000000
0.466914 0.125541 0.000000
0.534563 0.107830 0.000000
0.600100 0.085876 0.000000
0.661581 0.060249 0.000000
0.719520 0.033850 0.000000
0.774685 0.006499 0.000000
0.827004 0.000000 0.000000
0.876507 0.000000 0.000000
0.923654 0.000000 0.000000
0.968624 0.000000 0.000000
1.000000 0.000000 0.000000
1.000000 0.000000 0.000000
1.000000 0.000000 0.000000
1.000000 0.000000 0.000000
1.000000 0.000000 0.000000
1.000000 0.000000 0.000000
1.000000 0.000000 0.000000
1.000000 0.000000 0.000000
1.000000 0.000000 0.000000
0.000000 0.219757 0.000000
0.000000 0.219757 0.000000
0.000000 0.219757 0.000000
0.000000 0.219757 0.000000
0.000000 0.218636 0.000000
0.000000 0.217256 0.000000
0.000000 0.215614 0.000000
0.016740 0.213474 0.000000
0.087118 0.210767 0.000000
0.152572 0.207532 0.000000
0.212040 0.203481 0.000000
0.271768 0.198239 0.000000
0.330738 0.191788 0.000000
0.392964 0.183447 0.000000
0.457865 0.172831 0.000000
0.526698 0.159056 0.000000
0.593137 0.142756 0.000000
0.655306 0.124082 0.000000
0.713788 0.102437 0.000000
0.769395 0.076342 0.000000
0.822079 0.048374 0.000000
0.871888 0.020070 0.000000
0.919295 0.000000 0.000000
0.964489 0.000000 0.000000
1.000000 0.000000 0.000000
1.000000 0.000000 0.000000
1.000000 0.000000 0.000000
1.000000 0.000000 0.000000
1.000000 0.000000 0.000000
1.000000 0.000000 0.000000
1.000000 0.000000 0.000000
1.000000 0.000000 0.000000
1.000000 0.000000 0.000000
0.000000 0.260757 0.000000
0.000000 0.260757 0.000000
0.000000 0.260757 0.000000
0.000000 0.260757 0.000000
0.000000 0.259791 0.000000
0.000000 0.258603 0.000000
0.000000 0.257190 0.000000
0.000000 0.255354 0.000000
0.040966 0.253035 0.000000
0.119246 0.250273 0.000000
0.187181 0.246826 0.000000
0.252047 0.242388 0.000000
0.314428 0.236961 0.000000
0.379224 0.230004 0.000000
0.446106 0.221254 0.000000
0.516531 0.210091 0.000000
0.584168 0.197191 0.000000
0.647243 0.182885 0.000000
0.706436 0.167038 0.000000
0.762619 0.149300 0.000000
0.815778 0.129397 0.000000
0.865982 0.106822 0.000000
0.913726 0.080136 0.000000
0.959209 0.051271 0.000000
1.000000 0.022799 0.000000
1.000000 0.000000 0.000000
1.000000 0.000000 0.000000
1.000000 0.000000 0.000000
1.000000 0.000000 0.000000
1.000000 0.000000 0.000000
1.000000 0.000000 0.000000
1.000000 0.000000 0.000000
1.000000 0.000000 0.000000
0.000000 0.303477 0.000000
0.000000 0.303477 0.000000
0.000000 0.303477 0.000000
0.000000 0.303477 0.000000
0.000000 0.302635 0.000000
0.000000 0.301601 0.000000
0.000000 0.300372 0.000000
0.000000 0.298776 0.000000
0.000000 0.296765 0.000000
0.068640 0.294374 0.000000
0.153296 0.291398 0.000000
0.226405 0.287577 0.000000
0.293733 0.282927 0.000000
0.362055 0.276997 0.000000
0.431558 0.269597 0.000000
0.504041 0.260251 0.000000
0.573200 0.249598 0.000000
0.637416 0.237983 0.000000
0.697495 0.225392 0.000000
0.754394 0.211684 0.000000
0.808138 0.196856 0.000000
0.858830 0.180863 0.000000
0.906986 0.163453 0.000000
0.952824 0.144347 0.000000
0.995765 0.123507 0.000000
1.000000 0.099707 0.000000
1.000000 0.072740 0.000000
1.000000 0.045389 0.000000
1.000000 0.018878 0.000000
1.000000 0.000000 0.000000
1.000000 0.000000 0.000000
1.000000 0.000000 0.000000
1.000000 0.000000 0.000000
0.000000 0.350237 0.000000
0.000000 0.350237 0.000000
0.000000 0.350237 0.000000
0.000000 0.350237 0.000000
0.000000 0.349501 0.000000
0.000000 0.348597 0.000000
0.000000 0.347525 0.000000
0.000000 0.346133 0.000000
0.000000 0.344382 0.000000
0.000000 0.342302 0.000000
0.100709 0.339719 0.000000
0.190271 0.336411 0.000000
0.265739 0.332397 0.000000
0.339361 0.327299 0.000000
0.412603 0.320970 0.000000
0.487922 0.313034 0.000000
0.559135 0.304068 0.000000
0.624865 0.294398 0.000000
0.686111 0.284049 0.000000
0.743943 0.272952 0.000000
0.798448 0.261171 0.000000
0.849770 0.248748 0.000000
0.898459 0.235599 0.000000
0.944753 0.221675 0.000000
0.988081 0.207176 0.000000
1.000000 0.191628 0.000000
1.000000 0.175527 0.000000
1.000000 0.158507 0.000000
1.000000 0.140583 0.000000
1.000000 0.121462 0.000000
1.000000 0.100756 0.000000
1.000000 0.078240 0.000000
1.000000 0.055877 0.000000
0.000000 0.400307 0.000000
0.000000 0.400307 0.000000
0.000000 0.400307 0.000000
0.000000 0.400307 0.000000
0.000000 0.399660 0.000000
0.000000 0.398866 0.000000
0.000000 0.397925 0.000000
0.000000 0.396704 0.000000
0.000000 0.395169 0.000000
0.000000 0.393349 0.000000
0.017106 0.391091 0.000000
0.136780 0.388205 0.000000
0.227505 0.384710 0.000000
0.309528 0.380285 0.000000
0.388218 0.374812 0.000000
0.467469 0.367983 0.000000
0.541441 0.360314 0.000000
0.609165 0.352102 0.000000
0.671926 0.343384 0.000000
0.730960 0.334125 0.000000
0.786437 0.324400 0.000000
0.838559 0.314272 0.000000
0.887921 0.303705 0.000000
0.934790 0.292700 0.000000
0.978606 0.281462 0.000000
1.000000 0.269686 0.000000
1.000000 0.257821 0.000000
1.000000 0.245682 0.000000
1.000000 0.233395 0.000000
1.000000 0.220916 0.000000
1.000000 0.208222 0.000000
1.000000 0.195622 0.000000
1.000000 0.183010 0.000000
0.000000 0.454443 0.000000
0.000000 0.454443 0.000000
0.000000 0.454443 0.000000
0.000000 0.454443 0.000000
0.000000 0.453873 0.000000
0.000000 0.453173 0.000000
0.000000 0.452344 0.000000
0.000000 0.451269 0.000000
0.000000 0.449919 0.000000
0.000000 0.448319 0.000000
0.000000 0.446336 0.000000
0.043198 0.443805 0.000000
0.171331 0.440745 0.000000
0.268781 0.436880 0.000000
0.356061 0.432112 0.000000
0.441044 0.426184 0.000000
0.518858 0.419557 0.000000
0.589281 0.412495 0.000000
0.654057 0.405040 0.000000
0.714668 0.397171 0.000000
0.771408 0.388965 0.000000
0.824562 0.380484 0.000000
0.874788 0.371711 0.000000
0.922391 0.362663 0.000000
0.966829 0.353520 0.000000
1.000000 0.344052 0.000000
1.000000 0.334638 0.000000
1.000000 0.325144 0.000000
1.000000 0.315688 0.000000
1.000000 0.306252 0.000000
1.000000 0.296840 0.000000
1.000000 0.287699 0.000000
1.000000 0.278763 0.000000
0.000000 0.507429 0.000000
0.000000 0.507429 0.000000
0.000000 0.507429 0.000000
0.000000 0.507429 0.000000
0.000000 0.506919 0.000000
0.000000 0.506294 0.000000
0.000000 0.505553 0.000000
0.000000 0.504592 0.000000
0.000000 0.503387 0.000000
0.000000 0.501959 0.000000
0.000000 0.500191 0.000000
0.000000 0.497936 0.000000
0.085069 0.495214 0.000000
0.216295 0.491780 0.000000
0.317063 0.487553 0.000000
0.409968 0.482309 0.000000
0.492747 0.476465 0.000000
0.566528 0.470257 0.000000
0.633749 0.463729 0.000000
0.696242 0.456866 0.000000
0.754474 0.449739 0.000000
0.808835 0.442410 0.000000
0.860064 0.434868 0.000000
0.908514 0.427133 0.000000
0.953666 0.419364 0.000000
0.996978 0.411372 0.000000
1.000000 0.403480 0.000000
1.000000 0.395581 0.000000
1.000000 0.387775 0.000000
1.000000 0.380051 0.000000
1.000000 0.372414 0.000000
1.000000 0.365065 0.000000
1.000000 0.357949 0.000000
0.000000 0.557496 0.000000
0.000000 0.557496 0.000000
0.000000 0.557496 0.000000
0.000000 0.557496 0.000000
0.000000 0.557033 0.000000
0.000000 0.556466 0.000000
0.000000 0.555794 0.000000
0.000000 0.554923 0.000000
0.000000 0.553830 0.000000
0.000000 0.552536 0.000000
0.000000 0.550935 0.000000
0.000000 0.548894 0.000000
0.000000 0.546433 0.000000
0.146254 0.543331 0.000000
0.270683 0.539517 0.000000
0.374676 0.534795 0.000000
0.463765 0.529542 0.000000
0.541602 0.523975 0.000000
0.611690 0.518136 0.000000
0.676346 0.512013 0.000000
0.736265 0.505675 0.000000
0.791978 0.499176 0.000000
0.844322 0.492510 0.000000
0.893708 0.485699 0.000000
0.939644 0.478883 0.000000
0.983640 0.471900 0.000000
1.000000 0.465033 0.000000
1.000000 0.458189 0.000000
1.000000 0.451457 0.000000
1.000000 0.444826 0.000000
1.000000 0.438301 0.000000
1.000000 0.432053 0.000000
1.000000 0.426033 0.000000
0.000000 0.604926 0.000000
0.000000 0.604926 0.000000
0.000000 0.604926 0.000000
0.000000 0.604926 0.000000
0.000000 0.604501 0.000000
0.000000 0.603980 0.000000
0.000000 0.603363 0.000000
0.000000 0.602564 0.000000
0.000000 0.601561 0.000000
0.000000 0.600375 0.000000
0.000000 0.598907 0.000000
0.000000 0.597037 0.000000
0.000000 0.594782 0.000000
0.036032 0.591944 0.000000
0.213502 0.588457 0.000000
0.334295 0.584145 0.000000
0.431631 0.579356 0.000000
0.514424 0.574290 0.000000
0.587884 0.568984 0.000000
0.655022 0.563431 0.000000
0.716847 0.557695 0.000000
0.774069 0.551826 0.000000
0.827645 0.545821 0.000000
0.878058 0.539698 0.000000
0.924849 0.533588 0.000000
0.969588 0.527344 0.000000
1.000000 0.521221 0.000000
1.000000 0.515136 0.000000
1.000000 0.509167 0.000000
1.000000 0.503306 0.000000
1.000000 0.497556 0.000000
1.000000 0.492066 0.000000
1.000000 0.486792 0.000000
0.000000 0.650262 0.000000
0.000000 0.650262 0.000000
0.000000 0.650262 0.000000
0.000000 0.650262 0.000000
0.000000 0.649869 0.000000
0.000000 0.649386 0.000000
0.000000 0.648814 0.000000
0.000000 0.648074 0.000000
0.000000 0.647146 0.000000
0.000000 0.646047 0.000000
0.000000 0.644688 0.000000
0.000000 0.642959 0.000000
0.000000 0.640874 0.000000
0.000000 0.638251 0.000000
0.136039 0.635032 0.000000
0.286919 0.631054 0.000000
0.395613 0.626641 0.000000
0.484619 0.621978 0.000000
0.562105 0.617101 0.000000
0.632122 0.612005 0.000000
0.696114 0.606747 0.000000
0.755026 0.601378 0.000000
0.809969 0.595892 0.000000
0.861512 0.590310 0.000000
0.909239 0.584749 0.000000
0.954785 0.579076 0.000000
0.996726 0.573525 0.000000
1.000000 0.568018 0.000000
1.000000 0.562628 0.000000
1.000000 0.557346 0.000000
1.000000 0.552174 0.000000
1.000000 0.547246 0.000000
1.000000 0.542522 0.000000
0.000000 0.693390 0.000000
0.000000 0.693390 0.000000
0.000000 0.693390 0.000000
0.000000 0.693390 0.000000
0.000000 0.693023 0.000000
0.000000 0.692572 0.000000
0.000000 0.692038 0.000000
0.000000 0.691347 0.000000
0.000000 0.690480 0.000000
0.000000 0.689455 0.000000
0.000000 0.688188 0.000000
0.000000 0.686574 0.000000
0.000000 0.684631 0.000000
0.000000 0.682186 0.000000
0.014142 0.679188 0.000000
0.229680 0.675486 0.000000
0.355122 0.671382 0.000000
0.452083 0.667050 0.000000
0.534409 0.662524 0.000000
0.607762 0.657799 0.000000
0.674206 0.652931 0.000000
0.735003 0.647964 0.000000
0.791450 0.642897 0.000000
0.844225 0.637748 0.000000
0.892966 0.632624 0.000000
0.939382 0.627406 0.000000
0.982051 0.622306 0.000000
1.000000 0.617255 0.000000
1.000000 0.612318 0.000000
1.000000 0.607486 0.000000
1.000000 0.602763 0.000000
1.000000 0.598269 0.000000
1.000000 0.593967 0.000000
0.000000 0.734296 0.000000
0.000000 0.734296 0.000000
0.000000 0.734296 0.000000
0.000000 0.734296 0.000000
0.000000 0.733950 0.000000
0.000000 0.733526 0.000000
0.000000 0.733024 0.000000
0.000000 0.732375 0.000000
0.000000 0.731560 0.000000
0.000000 0.730597 0.000000
0.000000 0.729406 0.000000
0.000000 0.727890 0.000000
0.000000 0.726065 0.000000
0.000000 0.723770 0.000000
0.000000 0.720956 0.000000
0.155442 0.717484 0.000000
0.309064 0.713638 0.000000
0.416571 0.709582 0.000000
0.504784 0.705347 0.000000
0.582017 0.700930 0.000000
0.651235 0.696382 0.000000
0.714121 0.691748 0.000000
0.772215 0.687024 0.000000
0.826327 0.682228 0.000000
0.876158 0.677461 0.000000
0.923504 0.672611 0.000000
0.966948 0.667877 0.000000
1.000000 0.663193 0.000000
1.000000 0.658619 0.000000
1.000000 0.654148 0.000000
1.000000 0.649783 0.000000
1.000000 0.645634 0.000000
1.000000 0.641666 0.000000
0.000000 0.773329 0.000000
0.000000 0.773329 0.000000
0.000000 0.773329 0.000000
0.000000 0.773329 0.000000
0.000000 0.773002 0.000000
0.000000 0.772601 0.000000
0.000000 0.772127 0.000000
0.000000 0.771513 0.000000
0.000000 0.770743 0.000000
0.000000 0.769832 0.000000
0.000000 0.768706 0.000000
0.000000 0.767274 0.000000
0.000000 0.765550 0.000000
0.000000 0.763383 0.000000
0.000000 0.760727 0.000000
0.039130 0.757452 0.000000
0.254864 0.753825 0.000000
0.377299 0.750002 0.000000
0.472878 0.746013 0.000000
0.554695 0.741856 0.000000
0.627080 0.737579 0.000000
0.692303 0.733224 0.000000
0.752210 0.728788 0.000000
0.807775 0.724287 0.000000
0.858782 0.719819 0.000000
0.907124 0.715275 0.000000
0.951394 0.710844 0.000000
0.992749 0.706464 0.000000
1.000000 0.702191 0.000000
1.000000 0.698017 0.000000
1.000000 0.693945 0.000000
1.000000 0.690078 0.000000
1.000000 0.686383 0.000000
0.000000 0.810618 0.000000
0.000000 0.810618 0.000000
0.000000 0.810618 0.000000
0.000000 0.810618 0.000000
0.000000 0.810308 0.000000
0.000000 0.809927 0.000000
0.000000 0.809476 0.000000
0.000000 0.808893 0.000000
0.000000 0.808161 0.000000
0.000000 0.807296 0.000000
0.000000 0.806228 0.000000
0.000000 0.804868 0.000000
0.000000 0.803231 0.000000
0.000000 0.801175 0.000000
0.000000 0.798655 0.000000
0.000000 0.795548 0.000000
0.187302 0.792110 0.000000
0.333241 0.788487 0.000000
0.438355 0.784710 0.000000
0.525668 0.780776 0.000000
0.601700 0.776730 0.000000
0.669543 0.772613 0.000000
0.731448 0.768422 0.000000
0.788596 0.764173 0.000000
0.840871 0.759957 0.000000
0.890279 0.755673 0.000000
0.935428 0.751498 0.000000
0.977531 0.747374 0.000000
1.000000 0.743353 0.000000
1.000000 0.739429 0.000000
1.000000 0.735602 0.000000
1.000000 0.731971 0.000000
1.000000 0.728504 0.000000
0.000000 0.845655 0.000000
0.000000 0.845655 0.000000
0.000000 0.845655 0.000000
0.000000 0.845655 0.000000
0.000000 0.845358 0.000000
0.000000 0.844995 0.000000
0.000000 0.844565 0.000000
0.000000 0.844008 0.000000
0.000000 0.843309 0.000000
0.000000 0.842484 0.000000
0.000000 0.841464 0.000000
0.000000 0.840166 0.000000
0.000000 0.838604 0.000000
0.000000 0.836642 0.000000
0.000000 0.834239 0.000000
0.000000 0.831277 0.000000
0.092024 0.828000 0.000000
0.283601 0.824549 0.000000
0.401413 0.820952 0.000000
0.495323 0.817207 0.000000
0.575512 0.813358 0.000000
0.646255 0.809443 0.000000
0.710328 0.805460 0.000000
0.769168 0.801424 0.000000
0.822785 0.797421 0.000000
0.873313 0.793356 0.000000
0.919379 0.789397 0.000000
0.962257 0.785488 0.000000
1.000000 0.781678 0.000000
1.000000 0.777963 0.000000
1.000000 0.774342 0.000000
1.000000 0.770908 0.000000
1.000000 0.767629 0.000000
0.000000 0.879494 0.000000
0.000000 0.879494 0.000000
0.000000 0.879494 0.000000
0.000000 0.879494 0.000000
0.000000 0.879210 0.000000
0.000000 0.878862 0.000000
0.000000 0.878450 0.000000
0.000000 0.877917 0.000000
0.000000 0.877248 0.000000
0.000000 0.876457 0.000000
0.000000 0.875480 0.000000
0.000000 0.874238 0.000000
0.000000 0.872743 0.000000
0.000000 0.870865 0.000000
0.000000 0.868565 0.000000
0.000000 0.865731 0.000000
0.000000 0.862598 0.000000
0.223820 0.859298 0.000000
0.360371 0.855861 0.000000
0.462624 0.852283 0.000000
0.547741 0.848608 0.000000
0.621798 0.844870 0.000000
0.688293 0.841070 0.000000
0.748994 0.837221 0.000000
0.804070 0.833405 0.000000
0.855805 0.829532 0.000000
0.902851 0.825761 0.000000
0.946556 0.822040 0.000000
0.986886 0.818416 0.000000
1.000000 0.814882 0.000000
1.000000 0.811440 0.000000
1.000000 0.808176 0.000000
1.000000 0.805063 0.000000
0.000000 0.910967 0.000000
0.000000 0.910967 0.000000
0.000000 0.910967 0.000000
0.000000 0.910967 0.000000
0.000000 0.910693 0.000000
0.000000 0.910359 0.000000
0.000000 0.909962 0.000000
0.000000 0.909449 0.000000
0.000000 0.908806 0.000000
0.000000 0.908045 0.000000
0.000000 0.907106 0.000000
0.000000 0.905911 0.000000
0.000000 0.904473 0.000000
0.000000 0.902668 0.000000
0.000000 0.900457 0.000000
0.000000 0.897734 0.000000
0.000000 0.894723 0.000000
0.148801 0.891554 0.000000
0.315801 0.888254 0.000000
0.428556 0.884820 0.000000
0.519370 0.881293 0.000000
0.597096 0.877708 0.000000
0.666201 0.874064 0.000000
0.728874 0.870374 0.000000
0.785475 0.866718 0.000000
