JourneyToTheHarvest/Assets/LUTS/GFX100S_FLog_FGamut_to_WDR_BT.709_33grid_V.1.01.cube
#title:FLog_FGamut_to_WDR_BT.709
#FUJIFILM Corporation
#Gamma:F-Log to Wide Dynamic Range curve
#Gamut:F-Gamut to ITU-R BT.709
#Version:1.01
LUT_3D_SIZE 5
0.000000 0.000000 0.000000
0.192718 0.000000 0.000000
0.621278 0.000000 0.000000
1.000000 0.000000 0.000000
1.000000 0.000000 0.000000
0.000000 0.146608 0.000000
0.140662 0.134068 0.000000
0.605680 0.029106 0.000000
1.000000 0.000000 0.000000
1.000000 0.000000 0.000000
0.000000 0.507429 0.000000
0.000000 0.503387 0.000000
0.492747 0.476465 0.000000
0.953666 0.419364 0.000000
1.000000 0.357949 0.000000
0.000000 0.845655 0.000000
0.000000 0.843309 0.000000
0.092024 0.828000 0.000000
0.822785 0.797421 0.000000
1.000000 0.767629 0.000000
0.000000 1.000000 0.000000
0.000000 1.000000 0.000000
0.000000 1.000000 0.000000
0.675482 1.000000 0.000000
1.000000 1.000000 0.000000
0.000000 0.000000 0.145221
0.186888 0.000000 0.143430
0.619367 0.000000 0.131461
1.000000 0.000000 0.105798
1.000000 0.000000 0.077405
0.000000 0.145792 0.135084
0.133197 0.133197 0.133197
0.603717 0.027919 0.120540
1.000000 0.000000 0.093064
1.000000 0.000000 0.063103
0.000000 0.507159 0.052495
0.000000 0.503114 0.049914
0.490315 0.476177 0.033260
0.952465 0.419037 0.000988
1.000000 0.357567 0.000000
0.000000 0.845498 0.000000
0.000000 0.843152 0.000000
0.082044 0.827840 0.000000
0.821372 0.797253 0.000000
1.000000 0.767455 0.000000
0.000000 1.000000 0.000000
0.000000 1.000000 0.000000
0.000000 1.000000 0.000000
0.673733 1.000000 0.000000
1.000000 1.000000 0.000000
0.000000 0.000000 0.504004
0.145108 0.000000 0.503413
0.606882 0.000000 0.499581
1.000000 0.000000 0.492071
1.000000 0.000000 0.484942
0.000000 0.140443 0.500719
0.075357 0.127482 0.500124
0.590885 0.020258 0.496267
1.000000 0.000000 0.488705
1.000000 0.000000 0.481525
0.000000 0.505413 0.478975
0.000000 0.501355 0.478352
0.474315 0.474315 0.474315
0.944675 0.416921 0.466392
1.000000 0.355096 0.458860
0.000000 0.844484 0.433717
0.000000 0.842135 0.433029
0.014953 0.826802 0.428564
0.812192 0.796172 0.419777
1.000000 0.766328 0.411395
0.000000 1.000000 0.386669
0.000000 1.000000 0.385899
0.000000 1.000000 0.380892
0.662332 1.000000 0.371003
1.000000 1.000000 0.361522
0.000000 0.000000 0.840319
0.029396 0.000000 0.839976
0.581889 0.000000 0.837754
1.000000 0.000000 0.833431
1.000000 0.000000 0.829366
0.000000 0.129641 0.838413
0.000000 0.115874 0.838068
0.565152 0.005413 0.835841
0.991352 0.000000 0.831507
1.000000 0.000000 0.827432
0.000000 0.502014 0.825994
0.000000 0.497927 0.825644
0.441651 0.470687 0.823380
0.929376 0.412789 0.818973
1.000000 0.350259 0.814830
0.000000 0.842516 0.801331
0.000000 0.840160 0.800969
0.000000 0.824787 0.798629
0.794073 0.794073 0.794073
1.000000 0.764140 0.789787
0.000000 1.000000 0.777502
0.000000 1.000000 0.777128
0.000000 1.000000 0.774709
0.639624 1.000000 0.769999
1.000000 1.000000 0.765567
0.000000 0.000000 1.000000
0.000000 0.000000 1.000000
0.557463 0.000000 1.000000
0.987177 0.000000 1.000000
1.000000 0.000000 1.000000
0.000000 0.118943 1.000000
0.000000 0.104282 1.000000
0.539938 0.000000 1.000000
0.977811 0.000000 1.000000
1.000000 0.000000 1.000000
0.000000 0.498814 1.000000
0.000000 0.494700 1.000000
0.408762 0.467270 1.000000
0.914816 0.408890 1.000000
1.000000 0.345678 1.000000
0.000000 0.840671 1.000000
0.000000 0.838310 1.000000
0.000000 0.822899 1.000000
0.776717 0.792105 1.000000
1.000000 0.762088 1.000000
0.000000 1.000000 1.000000
0.000000 1.000000 1.000000
0.000000 1.000000 1.000000
0.617594 1.000000 1.000000
1.000000 1.000000 1.000000
