JourneyToTheHarvest/Assets/LUTS/GFX100S_FLog_FGamut_to_WDR_BT.709_33grid_V.1.01.cube
#title:FLog_FGamut_to_WDR_BT.709
#FUJIFILM Corporation
#Gamma:F-Log to Wide Dynamic Range curve
#Gamut:F-Gamut to ITU-R BT.709
#Version:1.01
LUT_3D_SIZE 9
0.000000 0.000000 0.000000
0.029889 0.000000 0.000000
0.192718 0.000000 0.000000
0.379037 0.000000 0.000000
0.621278 0.000000 0.000000
0.842151 0.000000 0.000000
1.000000 0.000000 0.000000
1.000000 0.000000 0.000000
1.000000 0.000000 0.000000
0.000000 0.020392 0.000000
0.019311 0.018150 0.000000
0.186763 0.002681 0.000000
0.375808 0.000000 0.000000
0.619326 0.000000 0.000000
0.840745 0.000000 0.000000
1.000000 0.000000 0.000000
1.000000 0.000000 0.000000
1.000000 0.000000 0.000000
0.000000 0.146608 0.000000
0.000000 0.145064 0.000000
0.140662 0.134068 0.000000
0.352755 0.106178 0.000000
0.605680 0.029106 0.000000
0.830970 0.000000 0.000000
1.000000 0.000000 0.000000
1.000000 0.000000 0.000000
1.000000 0.000000 0.000000
0.000000 0.303477 0.000000
0.000000 0.302635 0.000000
0.000000 0.296765 0.000000
0.293733 0.282927 0.000000
0.573200 0.249598 0.000000
0.808138 0.196856 0.000000
0.995765 0.123507 0.000000
1.000000 0.018878 0.000000
1.000000 0.000000 0.000000
0.000000 0.507429 0.000000
0.000000 0.506919 0.000000
0.000000 0.503387 0.000000
0.085069 0.495214 0.000000
0.492747 0.476465 0.000000
0.754474 0.449739 0.000000
0.953666 0.419364 0.000000
1.000000 0.387775 0.000000
1.000000 0.357949 0.000000
0.000000 0.693390 0.000000
0.000000 0.693023 0.000000
0.000000 0.690480 0.000000
0.000000 0.684631 0.000000
0.355122 0.671382 0.000000
0.674206 0.652931 0.000000
0.892966 0.632624 0.000000
1.000000 0.612318 0.000000
1.000000 0.593967 0.000000
0.000000 0.845655 0.000000
0.000000 0.845358 0.000000
0.000000 0.843309 0.000000
0.000000 0.838604 0.000000
0.092024 0.828000 0.000000
0.575512 0.813358 0.000000
0.822785 0.797421 0.000000
1.000000 0.781678 0.000000
1.000000 0.767629 0.000000
0.000000 0.968645 0.000000
0.000000 0.968389 0.000000
0.000000 0.966626 0.000000
0.000000 0.962580 0.000000
0.000000 0.953485 0.000000
0.459445 0.940978 0.000000
0.748094 0.927434 0.000000
0.942797 0.914131 0.000000
1.000000 0.902324 0.000000
0.000000 1.000000 0.000000
0.000000 1.000000 0.000000
0.000000 1.000000 0.000000
0.000000 1.000000 0.000000
0.000000 1.000000 0.000000
0.325692 1.000000 0.000000
0.675482 1.000000 0.000000
0.887560 1.000000 0.000000
1.000000 1.000000 0.000000
0.000000 0.000000 0.020137
0.028578 0.000000 0.019810
0.191988 0.000000 0.017556
0.378638 0.000000 0.012402
0.621036 0.000000 0.000902
0.841977 0.000000 0.000000
1.000000 0.000000 0.000000
1.000000 0.000000 0.000000
1.000000 0.000000 0.000000
0.000000 0.020242 0.018327
0.018000 0.018000 0.018000
0.186014 0.002531 0.015746
0.375406 0.000000 0.010592
0.619084 0.000000 0.000000
0.840570 0.000000 0.000000
1.000000 0.000000 0.000000
1.000000 0.000000 0.000000
1.000000 0.000000 0.000000
0.000000 0.146505 0.005835
0.000000 0.144960 0.005508
0.139733 0.133958 0.003254
0.352327 0.106050 0.000000
0.605432 0.028956 0.000000
0.830793 0.000000 0.000000
1.000000 0.000000 0.000000
1.000000 0.000000 0.000000
1.000000 0.000000 0.000000
0.000000 0.303421 0.000000
0.000000 0.302579 0.000000
0.000000 0.296707 0.000000
0.293226 0.282867 0.000000
0.572937 0.249531 0.000000
0.807956 0.196774 0.000000
0.995620 0.123391 0.000000
1.000000 0.018728 0.000000
1.000000 0.000000 0.000000
0.000000 0.507395 0.000000
0.000000 0.506885 0.000000
0.000000 0.503352 0.000000
0.083784 0.495179 0.000000
0.492440 0.476428 0.000000
0.754277 0.449701 0.000000
0.953514 0.419323 0.000000
1.000000 0.387731 0.000000
1.000000 0.357901 0.000000
0.000000 0.693366 0.000000
0.000000 0.692998 0.000000
0.000000 0.690456 0.000000
0.000000 0.684606 0.000000
0.354697 0.671356 0.000000
0.673985 0.652905 0.000000
0.892803 0.632597 0.000000
1.000000 0.612290 0.000000
1.000000 0.593938 0.000000
0.000000 0.845635 0.000000
0.000000 0.845338 0.000000
0.000000 0.843289 0.000000
0.000000 0.838584 0.000000
0.090796 0.827980 0.000000
0.575251 0.813338 0.000000
0.822606 0.797400 0.000000
1.000000 0.781657 0.000000
1.000000 0.767607 0.000000
0.000000 0.968628 0.000000
0.000000 0.968372 0.000000
0.000000 0.966609 0.000000
0.000000 0.962563 0.000000
0.000000 0.953467 0.000000
0.459115 0.940960 0.000000
0.747896 0.927416 0.000000
0.942643 0.914113 0.000000
1.000000 0.902306 0.000000
0.000000 1.000000 0.000000
0.000000 1.000000 0.000000
0.000000 1.000000 0.000000
0.000000 1.000000 0.000000
0.000000 1.000000 0.000000
0.325231 1.000000 0.000000
0.675260 1.000000 0.000000
0.887396 1.000000 0.000000
1.000000 1.000000 0.000000
0.000000 0.000000 0.145221
0.019530 0.000000 0.144995
0.186888 0.000000 0.143430
0.375875 0.000000 0.139804
0.619367 0.000000 0.131461
0.840774 0.000000 0.119502
1.000000 0.000000 0.105798
1.000000 0.000000 0.091390
1.000000 0.000000 0.077405
0.000000 0.019205 0.143966
0.008952 0.016963 0.143739
0.180781 0.001494 0.142164
0.372620 0.000000 0.138515
0.617409 0.000000 0.130114
0.839365 0.000000 0.118064
1.000000 0.000000 0.104240
1.000000 0.000000 0.089685
1.000000 0.000000 0.075595
0.000000 0.145792 0.135084
0.000000 0.144242 0.134846
0.133197 0.133197 0.133197
0.349364 0.105160 0.129372
0.603717 0.027919 0.120540
0.829573 0.000000 0.107801
1.000000 0.000000 0.093064
1.000000 0.000000 0.077176
1.000000 0.000000 0.063103
0.000000 0.303032 0.113047
0.000000 0.302188 0.112778
0.000000 0.296310 0.110914
0.289704 0.282452 0.106576
0.571120 0.249067 0.096466
0.806697 0.196207 0.081617
0.994620 0.122586 0.064715
1.000000 0.017691 0.048616
1.000000 0.000000 0.034543
0.000000 0.507159 0.052495
0.000000 0.506649 0.052168
0.000000 0.503114 0.049914
0.074506 0.494938 0.044760
0.490315 0.476177 0.033260
0.752921 0.449434 0.017643
0.952465 0.419037 0.000988
1.000000 0.387422 0.000000
1.000000 0.357567 0.000000
0.000000 0.693196 0.000000
0.000000 0.692828 0.000000
0.000000 0.690285 0.000000
0.000000 0.684433 0.000000
0.351754 0.671180 0.000000
0.672454 0.652723 0.000000
0.891674 0.632410 0.000000
1.000000 0.612096 0.000000
1.000000 0.593738 0.000000
0.000000 0.845498 0.000000
0.000000 0.845201 0.000000
0.000000 0.843152 0.000000
0.000000 0.838446 0.000000
0.082044 0.827840 0.000000
0.573441 0.813195 0.000000
0.821372 0.797253 0.000000
1.000000 0.781507 0.000000
1.000000 0.767455 0.000000
0.000000 0.968509 0.000000
0.000000 0.968254 0.000000
0.000000 0.966490 0.000000
0.000000 0.962444 0.000000
0.000000 0.953347 0.000000
0.456834 0.940838 0.000000
0.746527 0.927292 0.000000
0.941581 0.913987 0.000000
1.000000 0.902178 0.000000
0.000000 1.000000 0.000000
0.000000 1.000000 0.000000
0.000000 1.000000 0.000000
0.000000 1.000000 0.000000
0.000000 1.000000 0.000000
0.322033 1.000000 0.000000
0.673733 1.000000 0.000000
0.886260 1.000000 0.000000
1.000000 1.000000 0.000000
0.000000 0.000000 0.301204
0.000000 0.000000 0.301081
0.174788 0.000000 0.300228
0.369483 0.000000 0.298269
0.615532 0.000000 0.293856
0.838016 0.000000 0.287763
1.000000 0.000000 0.281135
1.000000 0.000000 0.274590
1.000000 0.000000 0.268752
0.000000 0.016834 0.300519
0.000000 0.014592 0.300396
0.168341 0.000000 0.299541
0.366173 0.000000 0.297578
0.613561 0.000000 0.293155
0.836602 0.000000 0.287050
1.000000 0.000000 0.280406
1.000000 0.000000 0.273845
1.000000 0.000000 0.267992
0.000000 0.144152 0.295756
0.000000 0.142589 0.295631
0.117339 0.131447 0.294763
0.342499 0.103109 0.292771
0.599777 0.025548 0.288281
0.826774 0.000000 0.282079
1.000000 0.000000 0.275327
1.000000 0.000000 0.268656
1.000000 0.000000 0.262700
0.000000 0.302140 0.284593
0.000000 0.301294 0.284463
0.000000 0.295399 0.283564
0.281500 0.281500 0.281500
0.566943 0.248002 0.276845
0.803812 0.194904 0.270408
0.992330 0.120732 0.263388
1.000000 0.015320 0.256441
1.000000 0.000000 0.250229
0.000000 0.506619 0.258130
0.000000 0.506109 0.257988
0.000000 0.502571 0.257007
0.053821 0.494384 0.254752
0.485421 0.475602 0.249656
0.749811 0.448824 0.242586
0.950062 0.418383 0.234845
1.000000 0.386716 0.227146
1.000000 0.356804 0.220230
0.000000 0.692807 0.217799
0.000000 0.692439 0.217635
0.000000 0.689894 0.216498
0.000000 0.684039 0.213881
0.344934 0.670778 0.207944
0.668941 0.652309 0.199648
0.889090 0.631981 0.190479
1.000000 0.611652 0.181266
1.000000 0.593280 0.172897
0.000000 0.845184 0.166374
0.000000 0.844888 0.166170
0.000000 0.842837 0.164757
0.000000 0.838129 0.161492
0.061111 0.827519 0.154018
0.569281 0.812867 0.143416
0.818543 0.796919 0.131446
0.998477 0.781166 0.119104
1.000000 0.767107 0.107569
0.000000 0.968239 0.101061
0.000000 0.967984 0.100773
0.000000 0.966220 0.098770
0.000000 0.962172 0.094094
0.000000 0.953073 0.083129
0.451573 0.940559 0.067273
0.743388 0.927009 0.050619
0.939147 0.913699 0.034520
1.000000 0.901886 0.020447
0.000000 1.000000 0.024142
0.000000 1.000000 0.023815
0.000000 1.000000 0.021561
0.000000 1.000000 0.016407
0.000000 1.000000 0.004906
0.314609 1.000000 0.000000
0.670227 1.000000 0.000000
0.883658 1.000000 0.000000
1.000000 1.000000 0.000000
0.000000 0.000000 0.504004
0.000000 0.000000 0.503929
0.145108 0.000000 0.503413
0.354821 0.000000 0.502230
0.606882 0.000000 0.499581
0.831827 0.000000 0.495961
1.000000 0.000000 0.492071
1.000000 0.000000 0.488280
1.000000 0.000000 0.484942
0.000000 0.011544 0.503589
0.000000 0.009302 0.503514
0.137658 0.000000 0.502997
0.351378 0.000000 0.501814
0.604882 0.000000 0.499163
0.830402 0.000000 0.495540
1.000000 0.000000 0.491646
1.000000 0.000000 0.487852
1.000000 0.000000 0.484511
0.000000 0.140443 0.500719
0.000000 0.138850 0.500644
0.075357 0.127482 0.500124
0.326690 0.098437 0.498934
0.590885 0.020258 0.496267
0.820492 0.000000 0.492622
1.000000 0.000000 0.488705
1.000000 0.000000 0.484887
1.000000 0.000000 0.481525
0.000000 0.300141 0.494094
0.000000 0.299290 0.494018
0.000000 0.293358 0.493491
0.262369 0.279368 0.492284
0.557504 0.245613 0.489581
0.797332 0.191972 0.485885
0.987199 0.116524 0.481912
1.000000 0.010030 0.478039
1.000000 0.000000 0.474628
0.000000 0.505413 0.478975
0.000000 0.504902 0.478896
0.000000 0.501355 0.478352
0.007663 0.493148 0.477107
0.474315 0.474315 0.474315
0.742820 0.447461 0.470498
0.944675 0.416921 0.466392
1.000000 0.385136 0.462389
1.000000 0.355096 0.458860
0.000000 0.691938 0.457635
0.000000 0.691570 0.457552
0.000000 0.689022 0.456983
0.000000 0.683159 0.455678
0.329235 0.669879 0.452754
0.661030 0.651382 0.448752
0.883292 0.631023 0.444444
1.000000 0.610661 0.440240
1.000000 0.592256 0.436532
0.000000 0.844484 0.433717
0.000000 0.844187 0.433629
0.000000 0.842135 0.433029
0.000000 0.837423 0.431652
0.014953 0.826802 0.428564
0.559883 0.812137 0.424334
0.812192 0.796172 0.419777
0.993381 0.780403 0.415326
1.000000 0.766328 0.411395
0.000000 0.967637 0.409276
0.000000 0.967381 0.409184
0.000000 0.965615 0.408548
0.000000 0.961565 0.407089
0.000000 0.952459 0.403815
0.439608 0.939937 0.399328
0.736331 0.926376 0.394487
0.933691 0.913056 0.389752
1.000000 0.901234 0.385566
0.000000 1.000000 0.386669
0.000000 1.000000 0.386572
0.000000 1.000000 0.385899
0.000000 1.000000 0.384356
0.000000 1.000000 0.380892
0.297426 1.000000 0.376138
0.662332 1.000000 0.371003
0.877820 1.000000 0.365974
1.000000 1.000000 0.361522
0.000000 0.000000 0.688915
0.000000 0.000000 0.688861
0.095787 0.000000 0.688489
0.333930 0.000000 0.687637
0.594925 0.000000 0.685732
0.823341 0.000000 0.683136
1.000000 0.000000 0.680356
1.000000 0.000000 0.677658
1.000000 0.000000 0.675289
0.000000 0.004360 0.688616
0.000000 0.002118 0.688562
0.085844 0.000000 0.688189
0.330282 0.000000 0.687337
0.592882 0.000000 0.685432
0.821899 0.000000 0.682835
1.000000 0.000000 0.680054
1.000000 0.000000 0.677354
1.000000 0.000000 0.674984
0.000000 0.135292 0.686550
0.000000 0.133655 0.686496
0.012677 0.121958 0.686122
0.303997 0.091868 0.685267
0.578581 0.013074 0.683355
0.811877 0.000000 0.680750
0.998739 0.000000 0.677960
1.000000 0.000000 0.675251
1.000000 0.000000 0.672873
0.000000 0.297407 0.681801
0.000000 0.296549 0.681746
0.000000 0.290566 0.681370
0.234212 0.276447 0.680509
0.544414 0.242336 0.678582
0.788441 0.187931 0.675957
0.980183 0.110645 0.673146
1.000000 0.002846 0.670417
1.000000 0.000000 0.668021
0.000000 0.503771 0.671075
0.000000 0.503258 0.671020
0.000000 0.499699 0.670637
0.000000 0.491464 0.669761
0.458800 0.472563 0.667802
0.733211 0.445603 0.665131
0.937306 0.414927 0.662271
1.000000 0.382979 0.659493
1.000000 0.352763 0.657055
0.000000 0.690757 0.656211
0.000000 0.690388 0.656154
0.000000 0.687835 0.655762
0.000000 0.681961 0.654865
0.306717 0.668656 0.652858
0.650123 0.650123 0.650123
0.875351 0.629720 0.647192
1.000000 0.609312 0.644345
1.000000 0.590863 0.641846
0.000000 0.843532 0.639955
0.000000 0.843235 0.639897
0.000000 0.841180 0.639494
0.000000 0.836462 0.638573
0.000000 0.825828 0.636511
0.546853 0.811143 0.633701
0.803479 0.795157 0.630689
0.986414 0.779365 0.627764
1.000000 0.765270 0.625194
0.000000 0.966817 0.623815
0.000000 0.966561 0.623755
0.000000 0.964794 0.623341
0.000000 0.960740 0.622394
0.000000 0.951625 0.620276
0.422819 0.939091 0.617388
0.726630 0.925516 0.614292
0.926225 0.912182 0.611283
1.000000 0.900348 0.608640
0.000000 1.000000 0.609335
0.000000 1.000000 0.609274
0.000000 1.000000 0.608850
0.000000 1.000000 0.607879
0.000000 1.000000 0.605708
0.272521 1.000000 0.602746
0.651448 1.000000 0.599570
0.869825 1.000000 0.596483
1.000000 1.000000 0.593771
0.000000 0.000000 0.840319
0.000000 0.000000 0.840276
0.029396 0.000000 0.839976
0.310201 0.000000 0.839289
0.581889 0.000000 0.837754
0.814185 0.000000 0.835665
1.000000 0.000000 0.833431
1.000000 0.000000 0.831265
1.000000 0.000000 0.829366
0.000000 0.000000 0.840078
0.000000 0.000000 0.840035
0.018818 0.000000 0.839734
0.306290 0.000000 0.839047
0.579799 0.000000 0.837512
0.812725 0.000000 0.835422
0.999414 0.000000 0.833187
1.000000 0.000000 0.831021
1.000000 0.000000 0.829122
0.000000 0.129641 0.838413
0.000000 0.127954 0.838369
0.000000 0.115874 0.838068
0.277936 0.084544 0.837380
0.565152 0.005413 0.835841
0.802578 0.000000 0.833746
0.991352 0.000000 0.831507
1.000000 0.000000 0.829335
1.000000 0.000000 0.827432
0.000000 0.294466 0.834591
0.000000 0.293600 0.834547
0.000000 0.287561 0.834245
0.200565 0.273303 0.833553
0.530087 0.238799 0.832006
0.778838 0.183544 0.829901
0.972640 0.104144 0.827650
1.000000 0.000000 0.825468
1.000000 0.000000 0.823555
0.000000 0.502014 0.825994
0.000000 0.501498 0.825950
0.000000 0.497927 0.825644
0.000000 0.489662 0.824944
0.441651 0.470687 0.823380
0.722812 0.443612 0.821251
0.929376 0.412789 0.818973
1.000000 0.380667 0.816766
1.000000 0.350259 0.814830
0.000000 0.689495 0.814161
0.000000 0.689125 0.814116
0.000000 0.686567 0.813805
0.000000 0.680682 0.813094
0.280885 0.667349 0.811505
0.638273 0.648776 0.809342
0.866794 0.628327 0.807028
1.000000 0.607870 0.804784
1.000000 0.589374 0.802817
0.000000 0.842516 0.801331
0.000000 0.842218 0.801286
0.000000 0.840160 0.800969
0.000000 0.835436 0.800246
0.000000 0.824787 0.798629
0.532593 0.810082 0.796428
0.794073 0.794073 0.794073
0.978924 0.778257 0.791790
1.000000 0.764140 0.789787
0.000000 0.965943 0.788714
0.000000 0.965687 0.788667
0.000000 0.963918 0.788346
0.000000 0.959860 0.787610
0.000000 0.950735 0.785964
0.404156 0.938187 0.783724
0.716128 0.924598 0.781328
0.918189 0.911250 0.779004
1.000000 0.899401 0.776966
0.000000 1.000000 0.777502
0.000000 1.000000 0.777454
0.000000 1.000000 0.777128
0.000000 1.000000 0.776380
0.000000 1.000000 0.774709
0.243490 1.000000 0.772434
0.639624 1.000000 0.769999
0.861208 1.000000 0.767638
1.000000 1.000000 0.765567
0.000000 0.000000 0.962614
0.000000 0.000000 0.962577
0.000000 0.000000 0.962319
0.285544 0.000000 0.961727
0.568992 0.000000 0.960406
0.805226 0.000000 0.958610
0.993452 0.000000 0.956689
1.000000 0.000000 0.954829
1.000000 0.000000 0.953199
0.000000 0.000000 0.962407
0.000000 0.000000 0.962369
0.000000 0.000000 0.962111
0.281320 0.000000 0.961519
0.566852 0.000000 0.960198
0.803749 0.000000 0.958401
0.992280 0.000000 0.956480
1.000000 0.000000 0.954619
1.000000 0.000000 0.952989
0.000000 0.124011 0.960973
0.000000 0.122272 0.960936
0.000000 0.109787 0.960677
0.250456 0.076923 0.960084
0.551847 0.000000 0.958761
0.793476 0.000000 0.956961
0.984153 0.000000 0.955037
1.000000 0.000000 0.953173
1.000000 0.000000 0.951540
0.000000 0.291597 0.957686
0.000000 0.290723 0.957649
0.000000 0.284629 0.957389
0.162927 0.270231 0.956794
0.515847 0.235336 0.955466
0.769431 0.179222 0.953659
0.965286 0.097608 0.951727
1.000000 0.000000 0.949856
1.000000 0.000000 0.948217
0.000000 0.500309 0.950307
0.000000 0.499792 0.950269
0.000000 0.496208 0.950007
0.000000 0.487913 0.949407
0.424417 0.468867 0.948067
0.712605 0.441680 0.946244
0.921639 0.410713 0.944296
1.000000 0.378419 0.942409
1.000000 0.347822 0.940755
0.000000 0.688272 0.940184
0.000000 0.687902 0.940145
0.000000 0.685339 0.939880
0.000000 0.679442 0.939273
0.253689 0.666083 0.937917
0.626593 0.647472 0.936072
0.858434 0.626978 0.934101
1.000000 0.606472 0.932190
1.000000 0.587930 0.930517
0.000000 0.841532 0.929253
0.000000 0.841234 0.929214
0.000000 0.839174 0.928945
0.000000 0.834443 0.928331
0.000000 0.823780 0.926957
0.518424 0.809055 0.925088
0.784864 0.793023 0.923090
0.971623 0.777184 0.921155
1.000000 0.763046 0.919459
0.000000 0.965097 0.918550
0.000000 0.964840 0.918511
0.000000 0.963069 0.918239
0.000000 0.959007 0.917616
0.000000 0.949874 0.916225
0.385273 0.937313 0.914332
0.705817 0.923710 0.912308
0.910347 0.910347 0.910347
1.000000 0.898486 0.908629
0.000000 1.000000 0.909080
0.000000 1.000000 0.909041
0.000000 1.000000 0.908765
0.000000 1.000000 0.908135
0.000000 1.000000 0.906728
0.212233 1.000000 0.904813
0.627971 1.000000 0.902766
0.852788 1.000000 0.900782
1.000000 1.000000 0.899044
0.000000 0.000000 1.000000
0.000000 0.000000 1.000000
0.000000 0.000000 1.000000
0.262284 0.000000 1.000000
0.557463 0.000000 1.000000
0.797304 0.000000 1.000000
0.987177 0.000000 1.000000
1.000000 0.000000 1.000000
1.000000 0.000000 1.000000
0.000000 0.000000 1.000000
0.000000 0.000000 1.000000
0.000000 0.000000 1.000000
0.257721 0.000000 1.000000
0.555276 0.000000 1.000000
0.795811 0.000000 1.000000
0.985997 0.000000 1.000000
1.000000 0.000000 1.000000
1.000000 0.000000 1.000000
0.000000 0.118943 1.000000
0.000000 0.117154 1.000000
0.000000 0.104282 1.000000
0.224062 0.070449 1.000000
0.539938 0.000000 1.000000
0.785426 0.000000 1.000000
0.977811 0.000000 1.000000
1.000000 0.000000 1.000000
1.000000 0.000000 1.000000
0.000000 0.289068 1.000000
0.000000 0.288187 1.000000
0.000000 0.282043 1.000000
0.123525 0.267521 1.000000
0.503061 0.232272 1.000000
0.761104 0.175376 1.000000
0.958806 0.091669 1.000000
1.000000 0.000000 1.000000
1.000000 0.000000 1.000000
0.000000 0.498814 1.000000
0.000000 0.498295 1.000000
0.000000 0.494700 1.000000
0.000000 0.486379 1.000000
0.408762 0.467270 1.000000
0.703552 0.439983 1.000000
0.914816 0.408890 1.000000
1.000000 0.376442 1.000000
1.000000 0.345678 1.000000
0.000000 0.687202 1.000000
0.000000 0.686831 1.000000
0.000000 0.684264 1.000000
0.000000 0.678357 1.000000
0.227616 0.664974 1.000000
0.616191 0.646329 1.000000
0.851052 0.625796 1.000000
1.000000 0.605248 1.000000
1.000000 0.586665 1.000000
0.000000 0.840671 1.000000
0.000000 0.840372 1.000000
0.000000 0.838310 1.000000
0.000000 0.833574 1.000000
0.000000 0.822899 1.000000
0.505705 0.808156 1.000000
0.776717 0.792105 1.000000
0.965190 0.776245 1.000000
1.000000 0.762088 1.000000
0.000000 0.964356 1.000000
0.000000 0.964100 1.000000
0.000000 0.962327 1.000000
0.000000 0.958262 1.000000
0.000000 0.949120 1.000000
0.367996 0.936549 1.000000
0.696669 0.922933 1.000000
0.903430 0.909557 1.000000
1.000000 0.897684 1.000000
0.000000 1.000000 1.000000
0.000000 1.000000 1.000000
0.000000 1.000000 1.000000
0.000000 1.000000 1.000000
0.000000 1.000000 1.000000
0.181363 1.000000 1.000000
0.617594 1.000000 1.000000
0.845352 1.000000 1.000000
1.000000 1.000000 1.000000
